X: 30056
T: Off To Wisconsin
R: reel
M: 4/4
K: Dmajor
de|"D"f2 ef d2 ef|"G"g2 fg "A"e2 de|"D"f2 de fed=c|"G"Bd "A"cA "D"d2:|
|:fg|"D"agfe d2 ef|"C"g2 fg e2 de|"D"fed=c "G"B2 gf|"A"edce "D"d2:|

